X:36
T:The Health
T:The Merry Wasel
T:The Merry Wassail
M:C|
L:1/4
Q:1/4=180
B:The Round Band Book of Playford
K:Cmaj clef=treble
P:A
e/2f/2 | "C"gg "G"g>f | "C"e c2 f/2g/2 | \
"F"aa e>f | "G4"g3 "G"d/2e/2 | \
"F"ff "G7"ed | "C"e2 "G7"d"C"c | \
"Dm"de "G7"d>c | "C"c3 :|
P:B
L:1/8
K:Gm clef=treble
|:"^Parson's Farewell" "Gm"(b2g2) g2(ab) 
%Error : Bar 10 is 7/4 not 2/2
| "F"(c'2f2) f3f |\
"Eb"(ga)b2 a2g2 | [1 "D"(f2d2) d4 :| [2 "D"(f2d2) d2 d'2 |]
|: "Bb"b4 b2d'2 | "Gm"b4 b2d'2 |\
"Bb"(bc')d'2 (bc')d'2 | "F"c'2a2 a4 |
"Cm"(ab)c'2 (ab)c'2 | "Gm"b2g2 "F"(ga)bc' |\
"Eb"d'2c'b "D"(ag)a2 | [1 "Gm"g6 d'2 :| [2 "Gm"g8 |]

